icons/arrow-block-downB.svg

<svg width="24" height="24" viewBox="0 0 24 24" fill="none" xmlns="http://www.w3.org/2000/svg">
<path d="M6.00009 10.05H9.4001V3.75C9.5001 3.45 9.7001 3.25 10.0001 3.25H14.0001C14.3001 3.25 14.6001 3.55 14.6001 3.85V10.15H18.0001C18.2001 10.15 18.3001 10.35 18.2001 10.55L12.5001 20.45C12.3001 20.85 11.7001 20.85 11.5001 20.45L5.80009 10.45C5.70009 10.25 5.80009 10.05 6.00009 10.05Z" fill="black"/>
<path fill-rule="evenodd" clip-rule="evenodd" d="M10.15 4H13.85V10.9H17.1331L12.0008 19.814L6.86283 10.8H10.15V4ZM8.68853 3.51283C8.85151 3.0239 9.26874 2.5 10 2.5H14C14.394 2.5 14.7251 2.68941 14.9429 2.90717C15.1606 3.12493 15.35 3.45608 15.35 3.85V9.4H18C18.3761 9.4 18.7153 9.60341 18.8834 9.93959C19.0425 10.2579 19.0092 10.6087 18.8709 10.8854L18.861 10.9051L13.1588 20.8089C12.6753 21.7309 11.3228 21.7304 10.8403 20.8072L5.13835 10.8037L5.12922 10.7854C4.99086 10.5087 4.95755 10.1579 5.11672 9.83959C5.28482 9.50341 5.62399 9.3 6.00004 9.3H8.65004V3.62829L8.68853 3.51283Z" fill="black"/>
</svg>

<svg xmlns="http://www.w3.org/2000/svg" fill="none" viewBox="0 0 24 24">
  <path fill="#000" d="M6 10.05h3.4v-6.3c.1-.3.3-.5.6-.5h4c.3 0 .6.3.6.6v6.3H18c.2 0 .3.2.2.4l-5.7 9.9c-.2.4-.8.4-1 0l-5.7-10c-.1-.2 0-.4.2-.4Z"/>
  <path fill="#000" fill-rule="evenodd" d="M10.15 4h3.7v6.9h3.283l-5.132 8.914L6.863 10.8h3.287V4Zm-1.461-.487C8.852 3.023 9.269 2.5 10 2.5h4c.394 0 .725.19.943.407.218.218.407.55.407.943V9.4H18c.376 0 .715.203.883.54.16.318.126.669-.012.945l-.01.02-5.702 9.904c-.484.922-1.836.921-2.319-.002L5.138 10.804l-.009-.019a1.056 1.056 0 0 1-.012-.945A.978.978 0 0 1 6 9.3h2.65V3.628l.039-.115Z" clip-rule="evenodd"/>
</svg>
